dist/images/logo-abbott-white.svg

<svg width="172" height="43" viewBox="0 0 172 43" fill="none" xmlns="http://www.w3.org/2000/svg">
<path d="M7.44883 14.5654C3.5544 14.5654 0.398438 17.7213 0.398438 21.6146V35.82C0.398438 39.7155 3.5544 42.8715 7.44883 42.8715H46.421C50.3154 42.8715 53.471 39.7155 53.471 35.82V7.46196C53.471 3.56904 50.3154 0.413086 46.421 0.413086H0.398438V7.48943H44.1089C45.3718 7.48943 46.3943 8.51232 46.3943 9.77485V33.509C46.3943 34.7704 45.3718 35.7955 44.1089 35.7955H9.75946C8.49843 35.7955 7.47479 34.7704 7.47479 33.509V23.9264C7.47479 22.6654 8.49768 21.6414 9.75946 21.6414H39.3176V14.5654H7.44883Z" fill="white"/>
<path d="M144.9 24.4897C144.9 29.8023 141.183 32.7524 136.106 32.7524C131.02 32.7524 127.31 29.8023 127.31 24.4897C127.31 19.1802 131.02 16.2255 136.106 16.2255C141.183 16.2255 144.9 19.1802 144.9 24.4897ZM108.594 32.2636H112.419L113.404 30.1968C114.59 32.0228 116.502 32.7524 118.648 32.7524C123.764 32.7524 125.67 28.8712 125.67 24.4881C125.67 20.1167 123.764 16.2255 118.648 16.2255C117.121 16.2255 115.517 17.1211 114.258 18.5154V10.2559H105.802V12.9102H107.369C108.357 12.9102 108.594 13.4028 108.594 14.3409V32.2636ZM89.4664 32.2636H93.2917L94.2765 30.1968C95.4644 32.0228 97.3763 32.7524 99.5213 32.7524C104.638 32.7524 106.544 28.8712 106.544 24.4881C106.544 20.1167 104.638 16.2255 99.5213 16.2255C97.9972 16.2255 96.3914 17.1211 95.129 18.5154V10.2559H86.6743V12.9102H88.242C89.2292 12.9102 89.4664 13.4028 89.4664 14.3409V32.2636ZM73.5164 15.194H73.5846L76.0349 22.3403H71.0883L73.5164 15.194ZM71.4721 10.2559L65.7809 26.846C65.0894 28.8712 64.6199 29.3398 63.4273 29.3398H62.2656V32.2636H72.2857V29.3398H71.3056C70.3802 29.3398 69.1828 29.2379 69.1828 28.7013C69.1828 28.2358 69.3207 27.7439 69.6927 26.5874L70.1066 25.2579H77.061L77.7739 27.642C77.9103 28.1416 77.9452 28.5067 77.9452 28.8465C77.9452 29.207 77.0943 29.3398 76.0698 29.3398H75.05V32.2636H87.4895V29.3398H86.3317C85.1454 29.3398 84.6657 28.8712 83.9892 26.846L78.2925 10.2559H71.4721ZM100.516 24.4881C100.516 27.8791 99.7386 29.9011 97.8204 29.9011C95.9132 29.9011 95.129 27.8791 95.129 24.4881C95.129 21.1065 95.9132 19.0844 97.8204 19.0844C99.7386 19.0844 100.516 21.1065 100.516 24.4881ZM136.106 18.8822C134.062 18.8822 133.346 20.5738 133.346 24.4897C133.346 28.4048 134.062 30.098 136.106 30.098C138.148 30.098 138.861 28.4048 138.861 24.4897C138.861 20.5738 138.148 18.8822 136.106 18.8822ZM169.205 24.7591V27.3456C169.205 28.8712 168.866 29.7745 167.571 29.7745C166.788 29.7745 166.416 29.2055 166.416 28.5067V19.3809H170.601V16.725H166.416V10.5585H163.036C162.758 13.3094 161.875 16.725 158.467 16.725H153.15V10.5585H149.779C149.503 13.3094 148.615 16.725 145.211 16.725V19.3809H147.493V27.7084C147.493 31.0947 149.435 32.7524 152.94 32.7524C157.041 32.7524 158.666 30.965 158.666 27.7084V24.7591H155.95V27.3456C155.95 28.8712 155.605 29.7745 154.314 29.7745C153.522 29.7745 153.15 29.2055 153.15 28.5067V19.3809H160.761V27.7084C160.761 31.0947 162.695 32.7524 166.208 32.7524C170.295 32.7524 171.936 30.965 171.936 27.7084V24.7591H169.205ZM119.642 24.4881C119.642 27.8791 118.866 29.9011 116.945 29.9011C115.039 29.9011 114.258 27.8791 114.258 24.4881C114.258 21.1065 115.039 19.0844 116.945 19.0844C118.866 19.0844 119.642 21.1065 119.642 24.4881Z" fill="white"/>
</svg>

<svg width="172" height="43" viewBox="0 0 172 43" fill="none" xmlns="http://www.w3.org/2000/svg"><path d="M7.449 14.565a7.05 7.05 0 00-7.05 7.05V35.82a7.05 7.05 0 007.05 7.051H46.42a7.05 7.05 0 007.05-7.051V7.462A7.049 7.049 0 0046.42.413H.398V7.49h43.71a2.285 2.285 0 012.286 2.286V33.51a2.286 2.286 0 01-2.285 2.286H9.759a2.287 2.287 0 01-2.284-2.286v-9.583a2.285 2.285 0 012.284-2.285h29.559v-7.076H7.448zM144.9 24.49c0 5.312-3.717 8.262-8.794 8.262-5.086 0-8.796-2.95-8.796-8.262 0-5.31 3.71-8.264 8.796-8.264 5.077 0 8.794 2.954 8.794 8.264zm-36.306 7.774h3.825l.985-2.067c1.186 1.826 3.098 2.555 5.244 2.555 5.116 0 7.022-3.88 7.022-8.264 0-4.371-1.906-8.262-7.022-8.262-1.527 0-3.131.895-4.39 2.29v-8.26h-8.456v2.654h1.567c.988 0 1.225.493 1.225 1.43v17.924zm-19.128 0h3.826l.984-2.067c1.188 1.826 3.1 2.555 5.245 2.555 5.117 0 7.023-3.88 7.023-8.264 0-4.371-1.906-8.262-7.023-8.262-1.524 0-3.13.895-4.392 2.29v-8.26h-8.455v2.654h1.568c.987 0 1.224.493 1.224 1.43v17.924zm-15.95-17.07h.069l2.45 7.146h-4.947l2.428-7.146zm-2.044-4.938l-5.691 16.59c-.692 2.025-1.161 2.494-2.354 2.494h-1.161v2.924h10.02V29.34h-.98c-.926 0-2.123-.102-2.123-.639 0-.465.138-.957.51-2.114l.414-1.33h6.954l.713 2.385c.136.5.171.865.171 1.204 0 .361-.85.494-1.875.494h-1.02v2.924h12.44V29.34h-1.158c-1.187 0-1.666-.469-2.343-2.494l-5.697-16.59h-6.82zm29.044 14.232c0 3.391-.777 5.413-2.696 5.413-1.907 0-2.691-2.022-2.691-5.413 0-3.381.784-5.404 2.691-5.404 1.919 0 2.696 2.023 2.696 5.404zm35.59-5.606c-2.044 0-2.76 1.692-2.76 5.608 0 3.915.716 5.608 2.76 5.608 2.042 0 2.755-1.693 2.755-5.608 0-3.916-.713-5.608-2.755-5.608zm33.099 5.877v2.587c0 1.525-.339 2.428-1.634 2.428-.783 0-1.155-.569-1.155-1.267V19.38h4.185v-2.656h-4.185v-6.167h-3.38c-.278 2.751-1.161 6.167-4.569 6.167h-5.317v-6.167h-3.371c-.276 2.751-1.164 6.167-4.568 6.167v2.656h2.282v8.327c0 3.387 1.942 5.044 5.447 5.044 4.101 0 5.726-1.787 5.726-5.044V24.76h-2.716v2.587c0 1.525-.345 2.428-1.636 2.428-.792 0-1.164-.569-1.164-1.267V19.38h7.611v8.327c0 3.387 1.934 5.044 5.447 5.044 4.087 0 5.728-1.787 5.728-5.044V24.76h-2.731zm-49.563-.27c0 3.39-.776 5.412-2.697 5.412-1.906 0-2.687-2.022-2.687-5.413 0-3.381.781-5.404 2.687-5.404 1.921 0 2.697 2.023 2.697 5.404z" fill="#fff"/></svg>
